packages/foundations/assets/icons/functional/images/human/wc_sign_28.svg

<svg width="28" height="28" viewBox="0 0 28 28" fill="none" xmlns="http://www.w3.org/2000/svg">
<g clip-path="url(#clip0_185_1294)">
<path fill-rule="evenodd" clip-rule="evenodd" d="M22.7227 7.0957C23.7071 7.0957 24.6915 7.31445 25.621 7.72457C26.004 7.88863 26.1679 8.18945 26.1679 8.51758C26.1679 8.95508 25.8125 9.41988 25.3203 9.41988C25.2109 9.41988 25.0742 9.39258 24.9648 9.3378C24.2266 9.00968 23.4883 8.8457 22.6133 8.8457C21.6016 8.8457 18.9766 9.00968 18.9766 14.0683C18.9766 18.6347 21.1367 19.1543 22.7773 19.1543C23.5156 19.127 24.2812 18.9902 24.9922 18.7168C25.129 18.6621 25.2656 18.6347 25.4023 18.6347C25.8946 18.6347 26.25 19.0996 26.25 19.5645C26.25 19.8652 26.0859 20.1386 25.7304 20.3027C24.7734 20.6855 23.7891 20.877 22.7773 20.9043C20.2344 20.9043 17.2266 19.7284 17.2266 14.0683C17.2266 7.998 20.6719 7.0957 22.7227 7.0957ZM1.7773 8.18945C1.75 8.10738 1.75 8.0253 1.75 7.94332C1.75 7.42383 2.2148 7.0957 2.6523 7.0957C3.00781 7.0957 3.36333 7.28707 3.4727 7.75195L5.7148 16.5566L8.25781 7.72457C8.36719 7.31445 8.7227 7.0957 9.07812 7.0957C9.46094 7.0957 9.81645 7.31445 9.92583 7.72457L12.3867 16.5566L14.7109 7.75195C14.8203 7.28707 15.1758 7.0957 15.5312 7.0957C15.9688 7.0957 16.4335 7.42383 16.4335 7.94332C16.4335 7.998 16.4062 8.10738 16.379 8.18945L13.2617 20.1113C13.1523 20.5488 12.7969 20.7676 12.4141 20.7676C12.0585 20.7676 11.7031 20.5488 11.5938 20.1386L9.07812 11.1699L6.50781 20.1386C6.39844 20.5761 6.04292 20.7676 5.6875 20.7676C5.30469 20.7676 4.94917 20.5488 4.8398 20.1113L1.7773 8.18945Z" fill="#1A1C1F"/>
</g>
<defs>
<clipPath id="clip0_185_1294">
<rect width="28" height="28" fill="white"/>
</clipPath>
</defs>
</svg>

<svg xmlns="http://www.w3.org/2000/svg" width="28" height="28" fill="none"><g clip-path="url(#a)"><path fill="#1A1C1F" fill-rule="evenodd" d="M22.723 7.096c.984 0 1.969.218 2.898.629.383.164.547.464.547.793 0 .437-.355.902-.848.902a.84.84 0 0 1-.355-.082 5.6 5.6 0 0 0-2.352-.492c-1.011 0-3.636.164-3.636 5.222 0 4.567 2.16 5.086 3.8 5.086a7 7 0 0 0 2.215-.437q.206-.082.41-.082c.493 0 .848.465.848.93 0 .3-.164.574-.52.738a8.5 8.5 0 0 1-2.953.601c-2.543 0-5.55-1.176-5.55-6.836 0-6.07 3.445-6.972 5.496-6.972M1.777 8.189c-.027-.082-.027-.164-.027-.246 0-.52.465-.847.902-.847.356 0 .711.191.82.656l2.243 8.805 2.543-8.832a.84.84 0 0 1 .82-.63c.383 0 .738.22.848.63l2.46 8.832 2.325-8.805c.11-.465.465-.656.82-.656.438 0 .902.328.902.847 0 .055-.027.164-.054.246l-3.117 11.922c-.11.438-.465.657-.848.657a.84.84 0 0 1-.82-.63L9.078 11.17l-2.57 8.969c-.11.437-.465.629-.82.629-.383 0-.739-.22-.848-.657z" clip-rule="evenodd"/></g><defs><clipPath id="a"><path fill="#fff" d="M0 0h28v28H0z"/></clipPath></defs></svg>
